X:1
T:Salvasti me (ps 29)
T:Ignatio Donati
T:Source : Primo libro di Motetti a voce sola---Venetia---A.Vincenti---1634. Editor : André Vierendeels (12/12/16).
T:Notes : Original Clefs : C3, F4 Editorial accidentals above the staff Figures in Bc are notated in original print 
T:Salvasti me (ps 29)
T:©
T:©
T:©
T:©
T:©
T:©
C:Ignatio Donati
Z:©
%%score 1 2
L:1/8
Q:1/4=100
M:4/4
K:F
V:1 treble nm="Alto" snm="A"
V:2 bass nm="MusicXML Part"
V:1
 z2 B,2 D4- | D2 C/B,/A,/G,/ A,3 B, | G,8 | z2 D2 F4- | F2 _E/D/C/B,/ C3 B, | B,2 F2 FEGF | %6
w: Sal- va-|* * * * * * sti|me,|sal- va-|* * * * * * sti|me a de- scen- den- ti-|
 EDFE DC_ED | C4 B,4 | z2 D2 DC_ED | CB,DC B,A,CB, | A,8 | G,8 | z2 GG G4- | G2 F2 F2 _E2 | %14
w: bus, a de- scen- den- ti- bus in|la- cum,|a de- scen- den- ti-|bus, a de- scen- den- ti- bus in|la-|cum,|con- ver- ti-|sti plan- ctum me-|
 _E<D E<D E<D E<F | D6 D2 | B,/A,/G,/A,/ B,/C/D/E/ F/F,/A,/B,/ C/D/E | F8- | F2 DC C4 | B,4 z4 | %20
w: |um in|gau- * * * * * * * * * * * * * *||* di- um mi-|hi,|
 z2 AA A4- | A2 G2 G2 F2 | F<E F<E F<E F<G | E6 ^F2 | %24
w: con- ver- ti-|* sti plan- ctum|me- * * * * * * *|* in|
"^-natural""^-natural" C/B,/A,/B,/ C/D/E/F/ G/G,/A,/B,/ C/D/E/F/ | G8- | G2 ED D4 | C4 z2 GE | %28
w: gau- * * * * * * * * * * * * * * *||* di- um mi-|hi, con- sci-|
"^-natural" AFDC B,/A,/G,/A,/ B,/C/D/E/ | ^F2 G4 F2 | G4 z4 | B,A,B,C DFED | EFGC D3 D | C4 z4 | %34
w: di- sti sac- cum me- * * * * * * *||um,|et cir- cum- de- di- sti me lae-|ti- ti- a, lae- ti- ti-|a,|
 CB,CD EGFE | FGAD E3 E | D4 z DEF | GA B4 AG | A8 | G4 z DEF | G2 D=B, C3 D | D4 C4 | z4 D4- | %43
w: et cir- cum- de- di- sti me lae-|ti- ti- a, lae- ti- ti-|a, ut can- tet|ti- bi glo- ri- a|me-|a, et non co-|pu- gnar, et non com-|pu- gnar|Do-|
 D2 A,A, A,2 G,2 | A,4 A,2 A2- | A2 EE E2 D2 | E4 E2 AE | GDFC EGFE | %48
w: * mi- ne De- us|me- us, Do-|* mi- ne De- us|me- us in ae-|ter- num, in ae- ter- num con- fi-|
 F/E/D/C/ D/E/F/G/ A/G/F/E/ F/E/F/D/ | E2 F2 E4 | D4 z2 FC | _EB,DA, CEDC | %52
w: te- * * * * * * * * * * * * * * *|* bor ti-|bi in ae-|ter- num, in ae- ter- num con- fi-|
 D/C/B,/A,/ G,/A,/B,/C/ D/A,/B,/C/ D/C/B,/A,/ | B,/F,/G,/A,/ B,/A,/G,/A,/ B,/C/D/A,/ B,/C/D/E/ | %54
w: te- * * * * * * * * * * * * * * *||
 ^F2 G4 F2 | G8 |] %56
w: bor ti- *|bi.|
V:2
"^BC" G,6 F,E, |"^(b)" D,8 | G,,4 G,,2 A,,2 | B,,6 A,,G,, | F,,8 | B,,4 A,,2 G,,2 | %6
 A,,4 B,,2 G,,2 | _E,2 F,2 B,,4 |"^6" G,,4 F,,2 _E,2 | F,2 D,2 _E,3 D, |"^6""^#" C,4 D,4 | %11
"^-natural" G,,8 |"^-natural" G,,6 A,,2 | B,,8 |"^b" C,8 |"^#" G,,8 |"^b" G,,8 | F,,4 D,2 E,2 | %18
 F,4 F,,4 | B,,4 B,,2 G,,2 |"^#""^b" A,,6 =B,,2 | ^C,8 | D,8 |"^#" A,,6 D,2 | A,,8 | %25
"^-natural" G,,4 E,,2 F,,2 |"^#""^4 3" G,,8 | C,4 C,4 | A,,2 ^F,,2 G,,4 | D,8 | G,,4 E,,D,,E,,F,, | %31
 G,,4 D,4 |"^6""^-natural" A,,2 E,,2 G,,4 | C,4 F,,E,,F,,G,, | A,,2 F,2 E,4 |"^#" D,4 A,,4 | %36
"^#" D,4 G,,4 | G,,4 _E,4 |"^6""^#" C,4 D,4 |"^-natural" G,,8 |"^(-natural)" G,,4 F,,2 A,,2 | %41
 G,,4 C,4 | B,,6 C,2 |"^#" D,6 _E,2 |"^#""^#" D,4 D,4 |"^#" A,,6 B,,2 |"^#" A,,4 A,,4 | %47
 E,G,D,F, C,4 | D,8 |"^#" A,,8 | D,4 D,2 F,2 |"^b""^b" C,_E,B,,D, C,4 | G,,8 | G,,8 |"^#" D,8 | %55
 G,,8 |] %56

